assets/svgs/gbh.svg

<?xml version="1.0" encoding="UTF-8" standalone="no"?>
<svg
   xmlns:dc="http://purl.org/dc/elements/1.1/"
   xmlns:cc="http://creativecommons.org/ns#"
   xmlns:rdf="http://www.w3.org/1999/02/22-rdf-syntax-ns#"
   xmlns:svg="http://www.w3.org/2000/svg"
   xmlns="http://www.w3.org/2000/svg"
   xmlns:sodipodi="http://sodipodi.sourceforge.net/DTD/sodipodi-0.dtd"
   xmlns:inkscape="http://www.inkscape.org/namespaces/inkscape"
   id="svg2"
   version="1.1"
   enable-background="new 0 0 566.929 98.574"
   y="0px"
   x="0px"
   sodipodi:docname="gbh.svg"
   width="263.99985"
   height="58"
   inkscape:version="0.92.5 (2060ec1f9f, 2020-04-08)">
  <metadata
     id="metadata15">
    <rdf:RDF>
      <cc:Work
         rdf:about="">
        <dc:format>image/svg+xml</dc:format>
        <dc:type
           rdf:resource="http://purl.org/dc/dcmitype/StillImage" />
      </cc:Work>
    </rdf:RDF>
  </metadata>
  <defs
     id="defs13" />
  <sodipodi:namedview
     pagecolor="#ffffff"
     bordercolor="#666666"
     borderopacity="1"
     objecttolerance="10"
     gridtolerance="10"
     guidetolerance="10"
     inkscape:pageopacity="0"
     inkscape:pageshadow="2"
     inkscape:window-width="532"
     inkscape:window-height="460"
     id="namedview11"
     showgrid="false"
     inkscape:zoom="2.36"
     inkscape:cx="50.00748"
     inkscape:cy="8"
     inkscape:window-x="72"
     inkscape:window-y="27"
     inkscape:window-maximized="0"
     inkscape:current-layer="svg2" />
  <g
     id="g4"
     transform="matrix(0.465655,0,0,0.461675,0.00607224,-2.9587122e-4)"
     style="fill:#ffffff">
    <polygon
       id="_43443024"
       points="532.22,54.913 526.59,97.041 504.34,97.041 510.86,48.973 488.61,0.917 512.64,0.917 524.51,28.215 542.31,0.917 566.93,0.917 " />
    <polygon
       id="_43441624"
       points="315.36,37.706 286.29,37.706 288.37,22.276 322.18,22.276 325.45,0.917 269.38,0.917 256.03,97.041 311.8,97.041 314.77,75.671 280.95,75.671 283.03,59.066 312.39,59.066 " />
    <path
       id="_43775888"
       d="m 112.15,49.565 7.416,-19.874 2.375,19.874 h -9.79 z m -8.01,18.987 h 20.172 l 3.563,28.48 h 36.488 l 16.91,-52.213 8.309,52.213 h 19.283 l 21.359,-55.179 3.561,55.179 h 21.359 L 249.21,0.913 H 223.696 L 203.816,51.64 196.101,0.913 H 173.259 L 147.154,79.825 137.363,0.913 h -28.48 l -31.744,79.8 4.154,-31.149 H 42.722 L 40.05,68.551 h 16.912 l -1.188,6.526 c -2.967,1.778 -9.789,2.076 -12.459,2.076 -2.67,0 -22.545,-1.779 -21.656,-23.14 C 22.541,32.655 51.021,12.779 84.84,23.755 L 88.106,3.285 C 65.558,-4.427 6.34,-0.111 0.291,52.828 -3.268,83.977 25.212,98.811 44.197,98.516 55.174,99.11 67.635,94.955 72.084,92.581 l -1.482,4.451 h 22.547 l 10.977,-28.48 z"
       inkscape:connector-curvature="0" />
    <path
       id="_44102912"
       d="m 464.58,0.028 c -15.428,-0.594 -37.678,8.306 -45.094,44.204 -7.416,35.894 12.459,50.431 30.852,52.804 18.396,2.373 44.205,-9.196 48.951,-43.609 4.75,-34.414 -12.17,-52.508 -34.71,-53.399 z m -2.37,20.47 c 6.229,0 19.578,4.154 16.314,29.071 -3.262,24.92 -18.688,27.887 -24.326,27.293 -5.637,-0.594 -17.207,-4.448 -13.943,-27.293 3.27,-22.841 15.43,-29.368 21.96,-29.071 z"
       inkscape:connector-curvature="0" />
    <path
       id="_44104296"
       d="m 370.83,37.706 h 12.461 c 9.197,0 10.977,-5.934 11.271,-8.305 0.297,-2.375 -2.371,-7.122 -7.117,-7.122 h -14.537 l -2.07,15.427 z m -5.34,37.971 h 16.912 c 9.195,0 11.271,-7.119 11.566,-9.493 0.299,-2.373 -2.371,-7.118 -7.117,-7.118 h -18.986 l -2.37,16.611 z M 340.58,97.038 353.93,0.92 h 40.938 c 9.793,0 24.031,11.274 22.252,26.403 -1.779,15.13 -6.527,16.02 -9.791,18.393 5.045,4.447 10.088,11.568 8.012,24.918 -2.078,13.352 -13.055,26.403 -32.338,26.403 l -42.42,10e-4 z"
       inkscape:connector-curvature="0" />
  </g>
  <path
     d="m 80.77448,57.806 h -2.607 v -2.857 h -1.956 v 2.857 h -2.608 v -8.078 h 2.608 v 2.856 h 1.956 v -2.856 h 2.607 z m 3.548,-1.279 -0.303,1.279 h -2.752 l 2.114,-8.078 h 4.028 l 2.114,8.078 h -2.752 l -0.298,-1.279 z m 1.146,-4.316 h -0.145 l -0.535,2.263 h 1.201 z m 9.96,3.282 0.196,2.17 c -0.546,0.225 -1.232,0.337 -2.058,0.337 -0.826,0 -1.488,-0.087 -1.989,-0.258 -0.499,-0.173 -0.894,-0.444 -1.182,-0.813 -0.286,-0.372 -0.486,-0.808 -0.601,-1.306 -0.112,-0.502 -0.168,-1.119 -0.168,-1.851 0,-0.733 0.056,-1.35 0.168,-1.851 0.115,-0.505 0.315,-0.945 0.601,-1.317 0.556,-0.714 1.577,-1.071 3.064,-1.071 0.332,0 0.721,0.032 1.168,0.097 0.447,0.064 0.78,0.145 0.997,0.24 l -0.391,1.976 c -0.565,-0.12 -1.082,-0.181 -1.551,-0.181 -0.468,0 -0.794,0.044 -0.978,0.131 -0.183,0.085 -0.274,0.259 -0.274,0.516 v 3.389 c 0.338,0.068 0.681,0.102 1.029,0.102 0.739,0 1.395,-0.103 1.969,-0.31 z m 3.768,-1.205 h -0.052 v 3.518 h -2.607 v -8.078 h 2.607 v 3.296 h 0.052 c 0.018,-0.259 0.061,-0.465 0.13,-0.619 l 1.28,-2.677 h 2.813 l -1.956,3.969 2.021,4.109 h -2.812 l -1.346,-2.895 c -0.069,-0.156 -0.112,-0.364 -0.13,-0.623 z m 4.746,3.375 0.363,-2.132 c 0.801,0.199 1.521,0.299 2.161,0.299 0.639,0 1.155,-0.026 1.546,-0.077 V 55.106 L 106.83848,55 c -1.061,-0.094 -1.789,-0.343 -2.184,-0.752 -0.397,-0.411 -0.596,-1.017 -0.596,-1.82 0,-1.103 0.242,-1.861 0.727,-2.277 0.481,-0.412 1.299,-0.618 2.454,-0.618 1.158,0 2.201,0.108 3.129,0.323 l -0.326,2.069 c -0.807,-0.129 -1.454,-0.194 -1.942,-0.194 -0.487,0 -0.9,0.022 -1.238,0.065 v 0.632 l 0.94,0.092 c 1.14,0.112 1.927,0.38 2.361,0.809 0.435,0.423 0.652,1.016 0.652,1.777 0,0.542 -0.074,1.001 -0.224,1.375 -0.149,0.376 -0.324,0.661 -0.526,0.854 -0.205,0.194 -0.495,0.342 -0.87,0.444 -0.373,0.104 -0.7,0.168 -0.983,0.19 -0.283,0.021 -0.658,0.031 -1.127,0.031 -1.13,0 -2.178,-0.112 -3.143,-0.337 z m 12.114,-2.958 h -2.021 v -1.861 h 2.021 v -2.005 h 1.877 v 2.005 h 2.034 v 1.861 h -2.034 v 2.016 h -1.877 z m 14.64,3.101 h -2.608 v -2.857 h -1.956 v 2.857 h -2.607 v -8.078 h 2.607 v 2.856 h 1.956 v -2.856 h 2.608 z m 0.912,-4.034 c 0,-1.472 0.278,-2.545 0.833,-3.223 0.556,-0.678 1.56,-1.016 3.013,-1.016 1.453,0 2.457,0.338 3.013,1.016 0.556,0.678 0.834,1.751 0.834,3.223 0,0.732 -0.06,1.349 -0.177,1.851 -0.118,0.498 -0.32,0.934 -0.606,1.306 -0.285,0.369 -0.681,0.64 -1.187,0.813 -0.503,0.171 -1.128,0.258 -1.877,0.258 -0.748,0 -1.373,-0.087 -1.876,-0.258 -0.507,-0.173 -0.902,-0.444 -1.188,-0.813 -0.285,-0.372 -0.487,-0.808 -0.605,-1.306 -0.118,-0.502 -0.177,-1.119 -0.177,-1.851 z m 2.803,-1.344 v 3.361 h 1.08 c 0.358,0 0.617,-0.04 0.778,-0.12 0.162,-0.083 0.242,-0.271 0.242,-0.563 v -3.361 h -1.094 c -0.348,0 -0.602,0.039 -0.764,0.12 -0.161,0.083 -0.242,0.27 -0.242,0.563 z m 8.358,1.464 -0.158,3.914 h -2.724 l 0.493,-8.078 h 3.404 l 1.02,4.108 h 0.089 l 1.019,-4.108 h 3.4 l 0.498,8.078 h -2.724 l -0.158,-3.914 h -0.094 l -0.987,3.914 h -1.997 l -1.002,-3.914 z m 13.233,-1.012 v 1.875 h -2.608 v 0.984 h 3.194 v 2.067 h -5.802 v -8.078 h 5.737 l -0.326,2.068 h -2.803 v 1.084 z m 6.374,4.926 h -4.68 v -8.078 h 4.224 c 0.782,0 1.341,0.15 1.676,0.452 0.335,0.301 0.503,0.741 0.503,1.32 0,0.576 -0.107,1.02 -0.321,1.334 -0.211,0.318 -0.495,0.522 -0.852,0.614 v 0.078 c 1.052,0.182 1.578,0.893 1.578,2.133 0,0.646 -0.174,1.167 -0.521,1.56 -0.348,0.393 -0.883,0.587 -1.607,0.587 z m -1.057,-3.217 h -1.015 v 1.315 h 1.006 c 0.363,0 0.545,-0.218 0.545,-0.656 0,-0.44 -0.179,-0.659 -0.536,-0.659 z m -0.196,-3.089 h -0.819 v 1.2 h 0.81 c 0.329,0 0.494,-0.199 0.494,-0.6 0,-0.4 -0.161,-0.6 -0.485,-0.6 z m 9.992,3.62 1.406,2.686 h -2.869 l -1.071,-2.404 h -0.558 v 2.404 h -2.608 v -8.078 h 4.107 c 1.869,0 2.803,0.942 2.803,2.829 0,1.293 -0.403,2.148 -1.21,2.563 z m -2.492,-3.324 h -0.6 v 1.615 h 0.6 c 0.314,0 0.542,-0.032 0.685,-0.096 0.142,-0.065 0.214,-0.215 0.214,-0.448 V 52.34 c 0,-0.234 -0.072,-0.383 -0.214,-0.448 -0.143,-0.065 -0.371,-0.096 -0.685,-0.096 z m 10.025,1.084 v 1.875 h -2.607 v 0.984 h 3.194 v 2.067 h -5.802 v -8.078 h 5.737 l -0.326,2.068 h -2.803 v 1.084 z m 8.396,1.358 0.628,-4.51 h 2.724 l -1.28,8.078 h -3.399 l -0.601,-2.972 h -0.158 l -0.587,2.972 h -3.404 l -1.276,-8.078 h 2.724 l 0.615,4.51 h 0.079 l 0.936,-4.51 h 1.998 l 0.922,4.51 z"
     style="white-space:pre;fill:#ffffff"
     id="path8"
     inkscape:connector-curvature="0" />
</svg>

<?xml version="1.0" encoding="utf-8"?>
<svg id="svg2" version="1.1" enable-background="new 0 0 566.929 98.574" y="0px" x="0px" viewBox="0 0 264 58" xmlns="http://www.w3.org/2000/svg">
  <g id="g4" fill="#fff" transform="matrix(0.465655, 0, 0, 0.461675, -0.001408, -0.000296)">
    <polygon id="_43443024" points="542.31 0.917 566.93 0.917 532.22 54.913 526.59 97.041 504.34 97.041 510.86 48.973 488.61 0.917 512.64 0.917 524.51 28.215"/>
    <polygon id="_43441624" points="283.03 59.066 312.39 59.066 315.36 37.706 286.29 37.706 288.37 22.276 322.18 22.276 325.45 0.917 269.38 0.917 256.03 97.041 311.8 97.041 314.77 75.671 280.95 75.671"/>
    <path id="_43775888" d="m112.15 49.565 7.416-19.874 2.375 19.874h-9.79zm-8.01 18.987h20.172l3.563 28.48h36.488l16.91-52.213 8.309 52.213h19.283l21.359-55.179 3.561 55.179h21.359l-5.934-96.119h-25.514l-19.88 50.727-7.715-50.727h-22.842l-26.105 78.912-9.791-78.912h-28.48l-31.744 79.8 4.154-31.149h-38.571l-2.672 18.987h16.912l-1.188 6.526c-2.967 1.778-9.789 2.076-12.459 2.076s-22.545-1.779-21.656-23.14c0.882-21.358 29.362-41.234 63.181-30.258l3.266-20.47c-22.548-7.712-81.766-3.396-87.815 49.543-3.559 31.149 24.921 45.983 43.906 45.688 10.977 0.594 23.438-3.561 27.887-5.935l-1.482 4.451h22.547l10.977-28.48z"/>
    <path id="_44102912" d="m464.58 0.028c-15.428-0.594-37.678 8.306-45.094 44.204-7.416 35.894 12.459 50.431 30.852 52.804 18.396 2.373 44.205-9.196 48.951-43.609 4.75-34.414-12.17-52.508-34.71-53.399zm-2.37 20.47c6.229 0 19.578 4.154 16.314 29.071-3.262 24.92-18.688 27.887-24.326 27.293-5.637-0.594-17.207-4.448-13.943-27.293 3.27-22.841 15.43-29.368 21.96-29.071z"/>
    <path id="_44104296" d="m370.83 37.706h12.461c9.197 0 10.977-5.934 11.271-8.305 0.297-2.375-2.371-7.122-7.117-7.122h-14.537l-2.07 15.427zm-5.34 37.971h16.912c9.195 0 11.271-7.119 11.566-9.493 0.299-2.373-2.371-7.118-7.117-7.118h-18.986l-2.37 16.611zm-24.91 21.361 13.35-96.118h40.938c9.793 0 24.031 11.274 22.252 26.403-1.779 15.13-6.527 16.02-9.791 18.393 5.045 4.447 10.088 11.568 8.012 24.918-2.078 13.352-13.055 26.403-32.338 26.403l-42.42 0.001z"/>
  </g>
  <path d="M 80.767 57.806 L 78.16 57.806 L 78.16 54.949 L 76.204 54.949 L 76.204 57.806 L 73.596 57.806 L 73.596 49.728 L 76.204 49.728 L 76.204 52.584 L 78.16 52.584 L 78.16 49.728 L 80.767 49.728 L 80.767 57.806 Z M 84.315 56.527 L 84.012 57.806 L 81.26 57.806 L 83.374 49.728 L 87.402 49.728 L 89.516 57.806 L 86.764 57.806 L 86.466 56.527 L 84.315 56.527 Z M 85.461 52.211 L 85.316 52.211 L 84.781 54.474 L 85.982 54.474 L 85.461 52.211 Z M 95.421 55.493 L 95.617 57.663 C 95.071 57.888 94.385 58 93.559 58 C 92.733 58 92.071 57.913 91.57 57.742 C 91.071 57.569 90.676 57.298 90.388 56.929 C 90.102 56.557 89.902 56.121 89.787 55.623 C 89.675 55.121 89.619 54.504 89.619 53.772 C 89.619 53.039 89.675 52.422 89.787 51.921 C 89.902 51.416 90.102 50.976 90.388 50.604 C 90.944 49.89 91.965 49.533 93.452 49.533 C 93.784 49.533 94.173 49.565 94.62 49.63 C 95.067 49.694 95.4 49.775 95.617 49.87 L 95.226 51.846 C 94.661 51.726 94.144 51.665 93.675 51.665 C 93.207 51.665 92.881 51.709 92.697 51.796 C 92.514 51.881 92.423 52.055 92.423 52.312 L 92.423 55.701 C 92.761 55.769 93.104 55.803 93.452 55.803 C 94.191 55.803 94.847 55.7 95.421 55.493 Z M 99.189 54.288 L 99.137 54.288 L 99.137 57.806 L 96.53 57.806 L 96.53 49.728 L 99.137 49.728 L 99.137 53.024 L 99.189 53.024 C 99.207 52.765 99.25 52.559 99.319 52.405 L 100.599 49.728 L 103.412 49.728 L 101.456 53.697 L 103.477 57.806 L 100.665 57.806 L 99.319 54.911 C 99.25 54.755 99.207 54.547 99.189 54.288 Z M 103.935 57.663 L 104.298 55.531 C 105.099 55.73 105.819 55.83 106.459 55.83 C 107.098 55.83 107.614 55.804 108.005 55.753 L 108.005 55.106 L 106.831 55 C 105.77 54.906 105.042 54.657 104.647 54.248 C 104.25 53.837 104.051 53.231 104.051 52.428 C 104.051 51.325 104.293 50.567 104.778 50.151 C 105.259 49.739 106.077 49.533 107.232 49.533 C 108.39 49.533 109.433 49.641 110.361 49.856 L 110.035 51.925 C 109.228 51.796 108.581 51.731 108.093 51.731 C 107.606 51.731 107.193 51.753 106.855 51.796 L 106.855 52.428 L 107.795 52.52 C 108.935 52.632 109.722 52.9 110.156 53.329 C 110.591 53.752 110.808 54.345 110.808 55.106 C 110.808 55.648 110.734 56.107 110.584 56.481 C 110.435 56.857 110.26 57.142 110.058 57.335 C 109.853 57.529 109.563 57.677 109.188 57.779 C 108.815 57.883 108.488 57.947 108.205 57.969 C 107.922 57.99 107.547 58 107.078 58 C 105.948 58 104.9 57.888 103.935 57.663 Z M 116.049 54.705 L 114.028 54.705 L 114.028 52.844 L 116.049 52.844 L 116.049 50.839 L 117.926 50.839 L 117.926 52.844 L 119.96 52.844 L 119.96 54.705 L 117.926 54.705 L 117.926 56.721 L 116.049 56.721 L 116.049 54.705 Z M 130.689 57.806 L 128.081 57.806 L 128.081 54.949 L 126.125 54.949 L 126.125 57.806 L 123.518 57.806 L 123.518 49.728 L 126.125 49.728 L 126.125 52.584 L 128.081 52.584 L 128.081 49.728 L 130.689 49.728 L 130.689 57.806 Z M 131.601 53.772 C 131.601 52.3 131.879 51.227 132.434 50.549 C 132.99 49.871 133.994 49.533 135.447 49.533 C 136.9 49.533 137.904 49.871 138.46 50.549 C 139.016 51.227 139.294 52.3 139.294 53.772 C 139.294 54.504 139.234 55.121 139.117 55.623 C 138.999 56.121 138.797 56.557 138.511 56.929 C 138.226 57.298 137.83 57.569 137.324 57.742 C 136.821 57.913 136.196 58 135.447 58 C 134.699 58 134.074 57.913 133.571 57.742 C 133.064 57.569 132.669 57.298 132.383 56.929 C 132.098 56.557 131.896 56.121 131.778 55.623 C 131.66 55.121 131.601 54.504 131.601 53.772 Z M 134.404 52.428 L 134.404 55.789 L 135.484 55.789 C 135.842 55.789 136.101 55.749 136.262 55.669 C 136.424 55.586 136.504 55.398 136.504 55.106 L 136.504 51.745 L 135.41 51.745 C 135.062 51.745 134.808 51.784 134.646 51.865 C 134.485 51.948 134.404 52.135 134.404 52.428 Z M 142.762 53.892 L 142.604 57.806 L 139.88 57.806 L 140.373 49.728 L 143.777 49.728 L 144.797 53.836 L 144.886 53.836 L 145.905 49.728 L 149.305 49.728 L 149.803 57.806 L 147.079 57.806 L 146.921 53.892 L 146.827 53.892 L 145.84 57.806 L 143.843 57.806 L 142.841 53.892 L 142.762 53.892 Z M 155.995 52.88 L 155.995 54.755 L 153.387 54.755 L 153.387 55.739 L 156.581 55.739 L 156.581 57.806 L 150.779 57.806 L 150.779 49.728 L 156.516 49.728 L 156.19 51.796 L 153.387 51.796 L 153.387 52.88 L 155.995 52.88 Z M 162.369 57.806 L 157.689 57.806 L 157.689 49.728 L 161.913 49.728 C 162.695 49.728 163.254 49.878 163.589 50.18 C 163.924 50.481 164.092 50.921 164.092 51.5 C 164.092 52.076 163.985 52.52 163.771 52.834 C 163.56 53.152 163.276 53.356 162.919 53.448 L 162.919 53.526 C 163.971 53.708 164.497 54.419 164.497 55.659 C 164.497 56.305 164.323 56.826 163.976 57.219 C 163.628 57.612 163.093 57.806 162.369 57.806 Z M 161.312 54.589 L 160.297 54.589 L 160.297 55.904 L 161.303 55.904 C 161.666 55.904 161.848 55.686 161.848 55.248 C 161.848 54.808 161.669 54.589 161.312 54.589 Z M 161.116 51.5 L 160.297 51.5 L 160.297 52.7 L 161.107 52.7 C 161.436 52.7 161.601 52.501 161.601 52.1 C 161.601 51.7 161.44 51.5 161.116 51.5 Z M 171.108 55.12 L 172.514 57.806 L 169.645 57.806 L 168.574 55.402 L 168.016 55.402 L 168.016 57.806 L 165.408 57.806 L 165.408 49.728 L 169.515 49.728 C 171.384 49.728 172.318 50.67 172.318 52.557 C 172.318 53.85 171.915 54.705 171.108 55.12 Z M 168.616 51.796 L 168.016 51.796 L 168.016 53.411 L 168.616 53.411 C 168.93 53.411 169.158 53.379 169.301 53.315 C 169.443 53.25 169.515 53.1 169.515 52.867 L 169.515 52.34 C 169.515 52.106 169.443 51.957 169.301 51.892 C 169.158 51.827 168.93 51.796 168.616 51.796 Z M 178.641 52.88 L 178.641 54.755 L 176.034 54.755 L 176.034 55.739 L 179.228 55.739 L 179.228 57.806 L 173.426 57.806 L 173.426 49.728 L 179.163 49.728 L 178.837 51.796 L 176.034 51.796 L 176.034 52.88 L 178.641 52.88 Z M 187.037 54.238 L 187.665 49.728 L 190.389 49.728 L 189.109 57.806 L 185.71 57.806 L 185.109 54.834 L 184.951 54.834 L 184.364 57.806 L 180.96 57.806 L 179.684 49.728 L 182.408 49.728 L 183.023 54.238 L 183.102 54.238 L 184.038 49.728 L 186.036 49.728 L 186.958 54.238 L 187.037 54.238 Z" style="fill: rgb(255, 255, 255); white-space: pre;"/>
</svg>
